res/icons/empty_messages.svg

<svg viewBox="0 0 307.57 161.07" xmlns="http://www.w3.org/2000/svg"><path d="m195.95 0h-187.4c-4.71 0-8.55 3.84-8.55 8.55v61.92c0 4.72 3.84 8.55 8.55 8.55h11.44v10.19c0 1.68 1.38 3.06 3.07 3.06.9 0 1.75-.4 2.33-1.1l10.12-12.15h160.44c4.72 0 8.55-3.84 8.55-8.55v-61.92c0-4.71-3.83-8.55-8.55-8.55z" fill="#4986b4"/><path d="m128.15 30.2h-53.81c-.81 0-1.47-.66-1.47-1.47s.66-1.47 1.47-1.47h53.81c.81 0 1.47.66 1.47 1.47 0 .82-.65 1.47-1.47 1.47z" fill="#eab334"/><path d="m181.97 41.95h-107.63c-.81 0-1.47-.66-1.47-1.47s.66-1.47 1.47-1.47h107.63c.81 0 1.47.66 1.47 1.47s-.66 1.47-1.47 1.47z" fill="#fff"/><path d="m181.97 53.69h-107.63c-.81 0-1.47-.66-1.47-1.47s.66-1.47 1.47-1.47h107.63c.81 0 1.47.66 1.47 1.47s-.66 1.47-1.47 1.47z" fill="#fff"/><path d="m111.62 68.79h187.39c4.72 0 8.55 3.84 8.55 8.55v61.92c0 4.72-3.84 8.55-8.55 8.55h-11.44v10.19c0 1.68-1.38 3.06-3.07 3.06-.9 0-1.75-.4-2.33-1.1l-10.12-12.15h-160.43c-4.72 0-8.55-3.84-8.55-8.55v-61.92c-.01-4.71 3.83-8.55 8.55-8.55z" fill="#223a49"/><path d="m179.41 98.99h53.81c.81 0 1.47-.66 1.47-1.47s-.66-1.47-1.47-1.47h-53.81c-.81 0-1.47.66-1.47 1.47 0 .82.66 1.47 1.47 1.47z" fill="#eab334"/><g fill="#fff"><path d="m125.6 110.74h107.63c.81 0 1.47-.66 1.47-1.47s-.66-1.47-1.47-1.47h-107.63c-.81 0-1.47.66-1.47 1.47s.66 1.47 1.47 1.47z"/><path d="m125.6 122.48h107.63c.81 0 1.47-.66 1.47-1.47s-.66-1.47-1.47-1.47h-107.63c-.81 0-1.47.66-1.47 1.47s.66 1.47 1.47 1.47z"/><path d="m254.61 93.72h28.16v28.16h-28.16z"/><path d="m19.93 26.9h28.16v28.16h-28.16z"/></g></svg>

<?xml version="1.0" encoding="utf-8"?>
<!-- Generator: Adobe Illustrator 24.2.0, SVG Export Plug-In . SVG Version: 6.00 Build 0)  -->
<svg version="1.2" baseProfile="tiny" xmlns="http://www.w3.org/2000/svg" xmlns:xlink="http://www.w3.org/1999/xlink" x="0px"
	 y="0px" viewBox="0 0 307.57 161.07" overflow="visible" xml:space="preserve">
<g id="BG">
</g>
<g id="Graphic">
	<g>
		<g>
			<g>
				<path fill="#4986B4" d="M195.95,0H8.55C3.84,0,0,3.84,0,8.55v61.92c0,4.72,3.84,8.55,8.55,8.55h11.44v10.19
					c0,1.68,1.38,3.06,3.07,3.06c0.9,0,1.75-0.4,2.33-1.1l10.12-12.15h160.44c4.72,0,8.55-3.84,8.55-8.55V8.55
					C204.5,3.84,200.67,0,195.95,0z"/>
			</g>
		</g>
		<g>
			<g>
				<g>
					<path fill="#EAB334" d="M128.15,30.2H74.34c-0.81,0-1.47-0.66-1.47-1.47c0-0.81,0.66-1.47,1.47-1.47h53.81
						c0.81,0,1.47,0.66,1.47,1.47C129.62,29.55,128.97,30.2,128.15,30.2z"/>
				</g>
			</g>
		</g>
		<g>
			<g>
				<g>
					<path fill="#FFFFFF" d="M181.97,41.95H74.34c-0.81,0-1.47-0.66-1.47-1.47c0-0.81,0.66-1.47,1.47-1.47h107.63
						c0.81,0,1.47,0.66,1.47,1.47C183.44,41.29,182.78,41.95,181.97,41.95z"/>
				</g>
			</g>
		</g>
		<g>
			<g>
				<g>
					<path fill="#FFFFFF" d="M181.97,53.69H74.34c-0.81,0-1.47-0.66-1.47-1.47s0.66-1.47,1.47-1.47h107.63
						c0.81,0,1.47,0.66,1.47,1.47S182.78,53.69,181.97,53.69z"/>
				</g>
			</g>
		</g>
	</g>
	<g>
		<g>
			<g>
				<path fill="#223A49" d="M111.62,68.79h187.39c4.72,0,8.55,3.84,8.55,8.55v61.92c0,4.72-3.84,8.55-8.55,8.55h-11.44v10.19
					c0,1.68-1.38,3.06-3.07,3.06c-0.9,0-1.75-0.4-2.33-1.1l-10.12-12.15H111.62c-4.72,0-8.55-3.84-8.55-8.55V77.34
					C103.06,72.63,106.9,68.79,111.62,68.79z"/>
			</g>
		</g>
		<g>
			<g>
				<g>
					<path fill="#EAB334" d="M179.41,98.99h53.81c0.81,0,1.47-0.66,1.47-1.47c0-0.81-0.66-1.47-1.47-1.47h-53.81
						c-0.81,0-1.47,0.66-1.47,1.47C177.94,98.34,178.6,98.99,179.41,98.99z"/>
				</g>
			</g>
		</g>
		<g>
			<g>
				<g>
					<path fill="#FFFFFF" d="M125.6,110.74h107.63c0.81,0,1.47-0.66,1.47-1.47s-0.66-1.47-1.47-1.47H125.6
						c-0.81,0-1.47,0.66-1.47,1.47S124.79,110.74,125.6,110.74z"/>
				</g>
			</g>
		</g>
		<g>
			<g>
				<g>
					<path fill="#FFFFFF" d="M125.6,122.48h107.63c0.81,0,1.47-0.66,1.47-1.47c0-0.81-0.66-1.47-1.47-1.47H125.6
						c-0.81,0-1.47,0.66-1.47,1.47C124.13,121.82,124.79,122.48,125.6,122.48z"/>
				</g>
			</g>
		</g>
		<g>
			<g>
				<g>
					<rect x="254.61" y="93.72" fill="#FFFFFF" width="28.16" height="28.16"/>
				</g>
			</g>
		</g>
	</g>
	<g>
		<g>
			<g>
				<rect x="19.93" y="26.9" fill="#FFFFFF" width="28.16" height="28.16"/>
			</g>
		</g>
	</g>
</g>
</svg>
